!!!COM: Anonymous
!!!OTL@@POL: Zawitaj mocny Twórco
!!!TXO: Polish
!!!ODT: 
!!!GTL: Hymnbook L 1642
!!!ARL: Biblioteka Diecezjalna w Sandomierzu 
!!!voices:	4
**kern	**text	**text	**kern	**text	**text	**kern	**text	**text	**kern	**text	**text
*staff4	*staff4	*staff4	*staff3	*staff3	*staff3	*staff2	*staff2	*staff2	*staff1	*staff1	*staff1
*I"Basso	*	*	*I"Canto III	*	*	*I"Canto II	*	*	*I"Canto I	*	*
=1-	=1-	=1-	=1-	=1-	=1-	=1-	=1-	=1-	=1-	=1-	=1-
*clefF4	*	*	*clefG2	*	*	*clefG2	*	*	*clefG2	*	*
*k[]	*	*	*k[]	*	*	*k[]	*	*	*k[]	*	*
*met(c|)	*	*	*met(c|)	*	*	*met(c|)	*	*	*met(c|)	*	*
*M2/2	*	*	*M2/2	*	*	*M2/2	*	*	*M2/2	*	*
1D	Za-	Od-	1d	Za-	Od-	1f	Za-	Od-	1a	Za-	Od-
=2	=2	=2	=2	=2	=2	=2	=2	=2	=2	=2	=2
2D\	-wi-	-ku-	2d/	-wi-	-ku-	2f/	-wi-	-ku-	2a/	-wi-	-ku-
2D\	-taj	-pi-	2d/	-taj	-pi-	2f/	-taj	-pi-	2a/	-taj	-pi-
=3	=3	=3	=3	=3	=3	=3	=3	=3	=3	=3	=3
1AA	mo-	-cie-	1c#	mo-	-cie-	1e	mo-	-cie-	1a	mo-	-cie-
=4	=4	=4	=4	=4	=4	=4	=4	=4	=4	=4	=4
1AA	-cny	-lu	1c#	-cny	-lu	1e	-cny	-lu	1a	-cny	-lu
=5	=5	=5	=5	=5	=5	=5	=5	=5	=5	=5	=5
1F	Tw&oacute;-	na-	1f	Tw&oacute;-	na-	1a	Tw&oacute;-	na-	1cc	Tw&oacute;-	na-
=6	=6	=6	=6	=6	=6	=6	=6	=6	=6	=6	=6
2G\	-rco	-ro-	2d/	-rco	-ro-	2g/	-rco	-ro-	2b-\	-rco	-ro-
[2A\	świa-	-du	[2c#/	świa-	-du	[2e/	świa-	-du	[2a/	świa-	-du
=7	=7	=7	=7	=7	=7	=7	=7	=7	=7	=7	=7
2A\]	.	.	2c#/]	.	.	2e/]	.	.	2a/]	.	.
2F\	-ta	ludz-	2d/	-ta	ludz-	2d/	-ta	ludz-	2a/	-ta	ludz-
=8	=8	=8	=8	=8	=8	=8	=8	=8	=8	=8	=8
1E	te-	-kie-	1e	te-	-kie-	1c#	te-	-kie-	1g	te-	-kie-
=9	=9	=9	=9	=9	=9	=9	=9	=9	=9	=9	=9
1D	-go	-go	1A	-go	-go	1d	-go	-go	1f	-go	-go
=10:|!	=10:|!	=10:|!	=10:|!	=10:|!	=10:|!	=10:|!	=10:|!	=10:|!	=10:|!	=10:|!	=10:|!
1AA	Kr&oacute;-	.	1c#	Kr&oacute;-	.	1e	Kr&oacute;-	.	1a	Kr&oacute;-	.
=11	=11	=11	=11	=11	=11	=11	=11	=11	=11	=11	=11
2AA/	-lu	.	2c#i/	-lu	.	2e/	-lu	.	2a/	-lu	.
2AA/	nad	.	2c#/	nad	.	2e/	nad	.	2a/	nad	.
=12	=12	=12	=12	=12	=12	=12	=12	=12	=12	=12	=12
2.D\	kr&oacute;-	.	[1d	kr&oacute;-	.	4f/	kr&oacute;-	.	1a	kr&oacute;-	.
.	.	.	.	.	.	4g/	.	.	.	.	.
.	.	.	.	.	.	[2a/	.	.	.	.	.
4C/	.	.	.	.	.	.	.	.	.	.	.
=13	=13	=13	=13	=13	=13	=13	=13	=13	=13	=13	=13
1BB-	.	.	1d]	.	.	4a/]	.	.	1dd	.	.
.	.	.	.	.	.	8g/L	.	.	.	.	.
.	.	.	.	.	.	8f/J	.	.	.	.	.
.	.	.	.	.	.	2g/	.	.	.	.	.
=14	=14	=14	=14	=14	=14	=14	=14	=14	=14	=14	=14
1AA	-l͜mi	.	1e	-l͜mi	.	1a	-l͜mi	.	1cc#	-l͜mi	.
=15	=15	=15	=15	=15	=15	=15	=15	=15	=15	=15	=15
2r	.	.	2r	.	.	2r	.	.	2r	.	.
2D\	Mo-	.	2f/	Mo-	.	2a/	Mo-	.	2dd\	Mo-	.
=16	=16	=16	=16	=16	=16	=16	=16	=16	=16	=16	=16
2C#i/	-nar-	.	2e/	-nar-	.	2a/	-nar-	.	2ee\	-nar-	.
[2D\	-cho	.	[2f/	-cho	.	[2a/	-cho	.	[2dd\	-cho	.
=17	=17	=17	=17	=17	=17	=17	=17	=17	=17	=17	=17
2D\]	.	.	2f/]	.	.	2a/]	.	.	2dd\]	.	.
2GG/	naj-	.	2g/	naj-	.	2b-\	naj-	.	2dd\	naj-	.
=18	=18	=18	=18	=18	=18	=18	=18	=18	=18	=18	=18
1BB-	-wyż-	.	1d	-wyż-	.	1g	-wyż-	.	1dd	-wyż-	.
=19	=19	=19	=19	=19	=19	=19	=19	=19	=19	=19	=19
1AA	-szy	.	1e	-szy	.	1a	-szy	.	1cc#	-szy	.
=20	=20	=20	=20	=20	=20	=20	=20	=20	=20	=20	=20
1AA	Je-	.	1e	Je-	.	1a	Je-	.	2.cc#\	Je-	.
.	.	.	.	.	.	.	.	.	4dd\	.	.
=21	=21	=21	=21	=21	=21	=21	=21	=21	=21	=21	=21
2GG/	-zu	.	2g/	-zu	.	2b-\	-zu	.	4ee\	-zu	.
.	.	.	.	.	.	.	.	.	4dd\	.	.
2BB-/	naj-	.	2d/	naj-	.	2g/	naj-	.	[2dd\	naj-	.
=22	=22	=22	=22	=22	=22	=22	=22	=22	=22	=22	=22
1AA	-mil-	.	1e	-mil-	.	1a	-mil-	.	2dd\]	.	.
.	.	.	.	.	.	.	.	.	2cc#\	-mil-	.
=23	=23	=23	=23	=23	=23	=23	=23	=23	=23	=23	=23
[1D	-szy.	.	[1d	-szy.	.	[1f#i	-szy.	.	[1dd	-szy.	.
=24	=24	=24	=24	=24	=24	=24	=24	=24	=24	=24	=24
1D]	.	.	1d]	.	.	1f#]	.	.	1dd]	.	.
==	==	==	==	==	==	==	==	==	==	==	==
*-	*-	*-	*-	*-	*-	*-	*-	*-	*-	*-	*-
!!!GTL: Hymnbook L 1642
!!!EFL: 23/39
!!!YEM: Creative Commons CC/BY/NC/SA 4.0
!!!ENC: Marcin Konik
!!!END: 2015-02-19 
!!!EED: Marcin Konik
!!!EEV: 
!!!ONB: Translated from MusicXML and edited by Marcin Konik
!!!CharacterEncoding: utf-8
!!!RDF**kern: i=editorial accidental
!!muse2ps: z14jc180F
!!title: @{OTL}, @{GTL}: @{pag}, ed. @{ENC}
